public/home/dao-it/icons/hop.svg

<svg width="41" height="41" viewBox="0 0 41 41" fill="none" xmlns="http://www.w3.org/2000/svg">
<path d="M20.0752 0.299988C24.0308 0.299988 27.8976 1.47297 31.1866 3.6706C34.4756 5.86822 37.039 8.9918 38.5528 12.6463C40.0665 16.3008 40.4626 20.3222 39.6909 24.2018C38.9192 28.0814 37.0144 31.6451 34.2173 34.4421C31.4203 37.2392 27.8566 39.144 23.977 39.9157C20.0974 40.6874 16.076 40.2913 12.4215 38.7776C8.767 37.2638 5.64343 34.7004 3.4458 31.4114C1.24817 28.1224 0.0751953 24.2556 0.0751953 20.3C0.0751953 14.9957 2.18233 9.90858 5.93306 6.15785C9.68379 2.40712 14.7709 0.299988 20.0752 0.299988Z" fill="#DFE225"/>
<path d="M28.6507 17.3352L24.9542 11.9569C24.8284 11.7754 24.647 11.6399 24.4373 11.5707C24.2277 11.5015 24.0012 11.5025 23.7921 11.5735C23.583 11.6445 23.4028 11.7816 23.2786 11.9641C23.1544 12.1467 23.093 12.3647 23.1037 12.5852C23.2004 13.7261 23.6252 14.8147 24.3268 15.7195L24.3223 15.725C23.9804 15.4702 18.8315 11.6033 12.7107 13.6623H12.7034C12.3985 13.7422 12.1378 13.9399 11.9785 14.2119C11.8192 14.4839 11.7744 14.808 11.8539 15.113C11.9377 15.4019 12.1255 15.6496 12.3812 15.8082C12.6369 15.9668 12.9423 16.025 13.2383 15.9716C14.511 15.7397 15.8078 15.6697 17.098 15.7631C18.3715 15.8683 19.6144 16.2089 20.7636 16.7676C21.9287 17.3666 22.9953 18.1405 23.926 19.0624C24.8392 20.0597 25.6516 21.1448 26.3514 22.3019C26.4301 22.4417 26.5557 22.5492 26.706 22.6054C26.8563 22.6617 27.0216 22.663 27.1728 22.6092C27.2584 22.5758 27.3366 22.5258 27.4028 22.4621C27.4691 22.3984 27.5221 22.3223 27.5589 22.2381C27.5957 22.1539 27.6155 22.0632 27.6173 21.9713C27.619 21.8795 27.6026 21.7881 27.569 21.7026C27.2845 20.9497 26.936 20.2226 26.5273 19.5293L26.5318 19.5239C26.9485 19.7525 27.426 19.8456 27.8981 19.7904C28.1002 19.7451 28.289 19.6532 28.4494 19.5221C28.6098 19.391 28.7374 19.2243 28.822 19.0352C28.9412 18.7608 28.9881 18.4605 28.9581 18.1629C28.9281 17.8652 28.8222 17.5803 28.6507 17.3352Z" fill="#242424"/>
<path d="M11.5906 23.2376L15.3079 28.6458C15.4335 28.8266 15.615 28.9613 15.8245 29.0291C16.0341 29.0969 16.26 29.0941 16.4678 29.0211C16.6756 28.9481 16.8537 28.809 16.9748 28.6251C17.096 28.4412 17.1534 28.2227 17.1384 28.003C17.0452 26.8569 16.6202 25.7627 15.9153 24.8541C15.9153 24.8541 15.9153 24.846 15.9153 24.8487C16.258 25.1035 21.4088 28.9704 27.5269 26.9113H27.5342C27.839 26.8315 28.0997 26.6338 28.2588 26.3617C28.418 26.0897 28.4626 25.7656 28.3828 25.4607C28.2992 25.1717 28.1113 24.924 27.8556 24.7655C27.5998 24.6071 27.2943 24.5492 26.9983 24.603C25.7258 24.8354 24.4288 24.9052 23.1387 24.8106C21.8653 24.7056 20.6224 24.3653 19.4731 23.8069C18.3072 23.209 17.2398 22.436 16.3079 21.5149C15.3972 20.516 14.5872 19.4297 13.8899 18.2718C13.8084 18.1265 13.6765 18.0161 13.519 17.9616C13.3616 17.9071 13.1896 17.9123 13.0358 17.9762C12.8701 18.0514 12.7398 18.1877 12.6722 18.3566C12.6046 18.5256 12.6049 18.7142 12.6731 18.8829C12.9578 19.6326 13.306 20.3566 13.714 21.0471L13.7094 21.0525C13.2927 20.8241 12.8152 20.7309 12.3431 20.786C12.1411 20.8307 11.9523 20.9221 11.792 21.053C11.6318 21.1838 11.5044 21.3504 11.4201 21.5394C11.3011 21.8134 11.2543 22.1134 11.2841 22.4107C11.314 22.708 11.4195 22.9926 11.5906 23.2376Z" fill="#242424"/>
</svg>

<svg width="41" height="41" viewBox="0 0 41 41" fill="none" xmlns="http://www.w3.org/2000/svg"><path d="M20.075.3a20 20 0 1 1 0 40 20 20 0 0 1 0-40" fill="#DFE225"/><path d="m28.65 17.335-3.696-5.378a1.016 1.016 0 0 0-1.85.628 5.93 5.93 0 0 0 1.223 3.134l-.005.006c-.342-.255-5.49-4.122-11.611-2.063h-.008a1.19 1.19 0 0 0-.85 1.451 1.217 1.217 0 0 0 1.385.859 15.4 15.4 0 0 1 3.86-.209c1.274.105 2.516.446 3.666 1.005a12.8 12.8 0 0 1 3.162 2.294 20.5 20.5 0 0 1 2.425 3.24.68.68 0 0 0 .822.307.697.697 0 0 0 .396-.906 14 14 0 0 0-1.042-2.174l.005-.005c.416.229.894.322 1.366.266a1.33 1.33 0 0 0 .924-.755 1.75 1.75 0 0 0-.171-1.7M11.59 23.238l3.718 5.408a1.006 1.006 0 0 0 1.83-.643 5.9 5.9 0 0 0-1.223-3.149v-.005c.343.255 5.494 4.121 11.612 2.062h.007a1.19 1.19 0 0 0 .849-1.45 1.215 1.215 0 0 0-1.385-.858c-1.272.232-2.57.302-3.86.208a10.3 10.3 0 0 1-3.665-1.004 12.8 12.8 0 0 1-3.165-2.292 20.6 20.6 0 0 1-2.418-3.243.68.68 0 0 0-.854-.296.706.706 0 0 0-.363.907c.285.75.633 1.474 1.041 2.164l-.005.005a2.3 2.3 0 0 0-1.366-.266 1.32 1.32 0 0 0-.923.753 1.75 1.75 0 0 0 .17 1.699" fill="#242424"/></svg>
